X: 1
T: Davy Nick Nack
T: 8 x 32R 3C
R: reel
C: arr. by Andy Imbrie
M: 4/4
L: 1/8
K: G
D|"G"GFGA B2 B2|"G"GFGA "(B)"B2 B2 |"D"dcBc "(E)"A2 A2|"D/F"dcBc "D/F#"A2 A2|"G"GFGA "(F#)"B2 B2|"G/E"GFGA "G7/D"B2 B2|"C"dcBc "D7"AcBA|"G - "G2 "D - "B2 "G"G2 ||
D|"G"GFGA B2 B2|"G"GFGA "Em"B2 B2 |"Am7"dcBc "D"A2 A2|"C"dcBc "D"A2 A2|"G"GFGA "(F#)"B2 B2|"G/E"GFGA "G7/D"B2 B2|"C"dcBc "D7"AcBA|"G - "G2 "D - "B2 "G"G2 ||
|: Bc|"G"d3 c B2 d2 |"G"g2 g2 "Em"d4|"Am"dcBc "D"A2 A2|"Am6/E"dcBc "D7/F#"A2 A2|"G"d3 c "(F#)"B2 d2|"G/E"g2 g2 "G7/D"d4|"C"dcBc "D7"AcBA|"G - "G2 "D - "B2 "G"G2 :|

